X:212
T: Abschied
N: A0257
O: Europa, Mitteleuropa, Deutschland
N: Gassenhawerlein 1535 No. 1.
R: Romanze, Ballade, Lied
M: 4/2
L: 1/4
K: C
C2 | C2C2C2C2 | B,4G,4
D4 | E4D2C4B,A, | B,2C2A,4 | G,6
C2 | C2C2C2C2 | B,4G,4
D4 | E4D2C4B,A, | B,2C2A,4 | G,6
G2 | F2E2D2C2 | F6ED | E4D4z2
D2 | G4F2E2 | FDD4C2 | D4z2
G,2 | C2D2E2F2 | G4D4
F4 | E4D2G4FE | F2E2D4 | C6

